;FLAVOR:Marlin
;TIME:2901
;Filament used: 2.4353m
;Layer height: 0.2
;MINX:13.808
;MINY:20.883
;MINZ:0.2
;MAXX:97.558
;MAXY:123.683
;MAXZ:5.4
;TARGET_MACHINE.NAME:Anycubic Kobra
;Generated with Cura_SteamEngine 5.7.1
M140 S60
M105
M190 S60
M104 S200
M105
M109 S200
M82 ;absolute extrusion mode
G28 ;Home
G1 Z15.0 F1200 ;Move the platform down 15mm
;Prime the extruder
G92 E0
G1 F200 E3
G92 E0
G92 E0
G92 E0
G1 F2400 E-6
;LAYER_COUNT:27
;LAYER:0
M107
M204 S2000
M205 X10 Y10
G0 F3000 X15.399 Y21.805 Z0.2
M204 S1000
M205 X8 Y8
;TYPE:SKIRT
G1 F2400 E0
G1 X16.803 Y21.047 E0.05307
G1 X17.842 Y20.895 E0.08799
G1 X93.596 Y20.883 E2.60758
G1 X94.701 Y21.118 E2.64516
G1 X95.824 Y21.739 E2.68784
G1 X96.421 Y22.277 E2.71457
G1 X96.987 Y23.081 E2.74727
G1 X97.344 Y23.88 E2.77638
G1 X97.557 Y24.804 E2.80792
G1 X97.558 Y119.725 E5.965
G1 X97.322 Y120.828 E6.00252
G1 X96.626 Y122.114 E6.05115
G1 X95.526 Y123.036 E6.09889
G1 X94.626 Y123.454 E6.1319
G1 X93.636 Y123.683 E6.16569
G1 X17.741 Y123.659 E8.68997
G1 X16.856 Y123.505 E8.71985
G1 X15.977 Y123.101 E8.75202
G1 X15.051 Y122.439 E8.78988
G1 X14.528 Y121.718 E8.81951
G1 X14.042 Y120.819 E8.8535
G1 X13.808 Y119.726 E8.89068
G1 X13.832 Y24.815 E12.04743
G1 X13.977 Y23.989 E12.07532
G1 X14.441 Y22.937 E12.11356
G1 X15.399 Y21.805 E12.16289
M204 S2000
M205 X10 Y10
G0 F3000 X15.654 Y22.122
M204 S1000
M205 X8 Y8
G1 F2400 X16.93 Y21.433 E12.21112
G1 X17.9 Y21.291 E12.24373
G1 X93.555 Y21.283 E14.76002
G1 X94.558 Y21.496 E14.79412
G1 X95.591 Y22.067 E14.83338
G1 X96.121 Y22.545 E14.85712
G1 X96.638 Y23.28 E14.88701
G1 X96.962 Y24.005 E14.91342
G1 X97.157 Y24.851 E14.9423
G1 X97.158 Y119.683 E18.09642
G1 X96.943 Y120.688 E18.1306
G1 X96.31 Y121.857 E18.17482
G1 X95.312 Y122.694 E18.21814
G1 X94.494 Y123.074 E18.24814
G1 X93.589 Y123.283 E18.27903
G1 X17.81 Y123.265 E20.79945
G1 X16.978 Y123.12 E20.82754
G1 X16.176 Y122.752 E20.85689
G1 X15.337 Y122.152 E20.8912
G1 X14.88 Y121.528 E20.91692
G1 X14.421 Y120.679 E20.94902
G1 X14.208 Y119.684 E20.98287
G1 X14.226 Y24.884 E24.13593
G1 X14.363 Y24.105 E24.16224
G1 X14.784 Y23.15 E24.19695
G1 X15.654 Y22.122 E24.24174
M204 S2000
M205 X10 Y10
G0 F3000 X15.909 Y22.439
M204 S1000
M205 X8 Y8
G1 F2400 X17.057 Y21.819 E24.28514
G1 X17.958 Y21.687 E24.31542
G1 X93.514 Y21.683 E26.82843
G1 X94.417 Y21.875 E26.85913
G1 X95.356 Y22.394 E26.89482
G1 X95.821 Y22.813 E26.91563
G1 X96.289 Y23.479 E26.94271
G1 X96.58 Y24.13 E26.96642
G1 X96.757 Y24.898 E26.99264
G1 X96.758 Y119.641 E30.1438
G1 X96.564 Y120.548 E30.17465
G1 X95.995 Y121.599 E30.2144
G1 X95.094 Y122.354 E30.2535
G1 X94.364 Y122.693 E30.28027
G1 X93.542 Y122.883 E30.30833
G1 X17.879 Y122.871 E32.82489
G1 X17.1 Y122.735 E32.85119
G1 X16.375 Y122.403 E32.87772
G1 X15.621 Y121.863 E32.90856
G1 X15.232 Y121.338 E32.9303
G1 X14.8 Y120.539 E32.96051
G1 X14.608 Y119.642 E32.99102
G1 X14.62 Y24.953 E36.14038
G1 X14.748 Y24.223 E36.16504
G1 X15.128 Y23.362 E36.19634
G1 X15.909 Y22.439 E36.23655
M204 S2000
M205 X10 Y10
G0 F3000 X16.164 Y22.756
M204 S1000
M205 X8 Y8
G1 F2400 X17.184 Y22.205 E36.27511
G1 X18.016 Y22.083 E36.30308
G1 X93.473 Y22.083 E38.81279
G1 X94.276 Y22.254 E38.8401
G1 X95.121 Y22.721 E38.87221
G1 X95.521 Y23.081 E38.89011
G1 X95.94 Y23.677 E38.91434
G1 X96.198 Y24.255 E38.93539
G1 X96.357 Y24.945 E38.95894
G1 X96.358 Y119.6 E42.10718
G1 X96.186 Y120.406 E42.13459
G1 X95.679 Y121.341 E42.16997
G1 X94.876 Y122.014 E42.20481
G1 X94.234 Y122.312 E42.22835
G1 X93.495 Y122.483 E42.25358
G1 X17.948 Y122.477 E44.76629
G1 X17.218 Y122.35 E44.79093
G1 X16.578 Y122.056 E44.81436
G1 X15.905 Y121.575 E44.84187
G1 X15.584 Y121.148 E44.85964
G1 X15.179 Y120.399 E44.88796
G1 X15.008 Y119.6 E44.91513
G1 X15.014 Y25.022 E48.06081
G1 X15.134 Y24.339 E48.08388
G1 X15.471 Y23.575 E48.11165
G1 X16.164 Y22.756 E48.14733
M204 S2000
M205 X10 Y10
G0 F3000 X16.419 Y23.073
M204 S1000
M205 X8 Y8
G1 F2400 X17.313 Y22.59 E48.18113
G1 X18.016 Y22.483 E48.20478
G1 X93.432 Y22.483 E50.71313
G1 X94.135 Y22.633 E50.73703
G1 X94.891 Y23.05 E50.76575
G1 X95.194 Y23.311 E50.77905
G1 X95.591 Y23.875 E50.80199
G1 X95.816 Y24.38 E50.82038
G1 X95.957 Y24.992 E50.84127
G1 X95.958 Y119.559 E53.98658
G1 X95.808 Y120.263 E54.01052
G1 X95.363 Y121.083 E54.04155
G1 X94.659 Y121.673 E54.0721
G1 X94.102 Y121.932 E54.09253
G1 X93.448 Y122.083 E54.11486
G1 X18.017 Y122.083 E56.6237
G1 X17.34 Y121.965 E56.64656
G1 X16.777 Y121.707 E56.66716
G1 X16.188 Y121.286 E56.69124
G1 X15.936 Y120.958 E56.70499
G1 X15.558 Y120.259 E56.73142
G1 X15.408 Y119.558 E56.75527
G1 X15.408 Y25.091 E59.89725
G1 X15.519 Y24.457 E59.91866
G1 X15.815 Y23.787 E59.94302
G1 X16.419 Y23.073 E59.97413
M204 S2000
M205 X10 Y10
G0 F3000 X16.674 Y23.39
M204 S1000
M205 X8 Y8
G1 F2400 X17.442 Y22.975 E60.00316
G1 X18.016 Y22.883 E60.0225
G1 X93.39 Y22.883 E62.52945
G1 X93.993 Y23.012 E62.54996
G1 X94.642 Y23.363 E62.5745
G1 X94.869 Y23.544 E62.58415
G1 X95.228 Y24.044 E62.60463
G1 X95.426 Y24.47 E62.62025
G1 X95.557 Y25.039 E62.63967
G1 X95.558 Y119.517 E65.78202
G1 X95.429 Y120.121 E65.80256
G1 X95.047 Y120.825 E65.8292
G1 X94.442 Y121.332 E65.85546
G1 X93.97 Y121.552 E65.87278
G1 X93.401 Y121.683 E65.8922
G1 X18.017 Y121.683 E68.39948
G1 X17.461 Y121.58 E68.41829
G1 X16.978 Y121.359 E68.43595
G1 X16.469 Y120.995 E68.45677
G1 X16.288 Y120.768 E68.46642
G1 X15.937 Y120.119 E68.49096
G1 X15.808 Y119.516 E68.51147
G1 X15.808 Y25.091 E71.65206
G1 X15.904 Y24.576 E71.66949
G1 X16.159 Y23.999 E71.69047
G1 X16.674 Y23.39 E71.71699
M204 S2000
M205 X10 Y10
G0 F3000 X16.929 Y23.707
M204 S1000
M205 X8 Y8
G1 F2400 X17.573 Y23.359 E71.74134
G1 X18.016 Y23.283 E71.75629
G1 X93.349 Y23.283 E74.26188
G1 X93.851 Y23.39 E74.27895
G1 X94.451 Y23.715 E74.30164
G1 X94.578 Y23.824 E74.30721
G1 X94.865 Y24.213 E74.32329
G1 X95.063 Y24.639 E74.33891
G1 X95.157 Y25.039 E74.35258
G1 X95.158 Y119.475 E77.49353
G1 X95.05 Y119.979 E77.51068
G1 X94.73 Y120.569 E77.533
G1 X94.228 Y120.99 E77.55479
G1 X93.801 Y121.189 E77.57046
G1 X93.401 Y121.283 E77.58413
G1 X18.017 Y121.283 E80.09141
G1 X17.586 Y121.197 E80.10603
G1 X17.145 Y120.995 E80.12216
G1 X16.749 Y120.704 E80.13851
G1 X16.64 Y120.577 E80.14407
G1 X16.315 Y119.977 E80.16677
G1 X16.208 Y119.475 E80.18384
G1 X16.208 Y25.091 E83.32306
G1 X16.296 Y24.655 E83.33786
G1 X16.503 Y24.211 E83.35415
G1 X16.929 Y23.707 E83.3761
M204 S2000
M205 X10 Y10
G0 F3000 X17.184 Y24.024
M204 S1000
M205 X8 Y8
G1 F2400 X17.705 Y23.742 E83.3958
G1 X18.016 Y23.683 E83.40633
G1 X93.349 Y23.683 E85.91192
G1 X93.66 Y23.742 E85.92245
G1 X94.26 Y24.067 E85.94514
G1 X94.505 Y24.387 E85.95855
G1 X94.677 Y24.744 E85.97173
G1 X94.757 Y25.039 E85.98189
G1 X94.758 Y119.475 E89.12285
G1 X94.698 Y119.788 E89.13345
G1 X94.414 Y120.312 E89.15327
G1 X94.054 Y120.63 E89.16925
G1 X93.696 Y120.803 E89.18247
G1 X93.401 Y120.883 E89.19264
G1 X18.017 Y120.883 E91.69992
G1 X17.753 Y120.833 E91.70886
G1 X17.312 Y120.631 E91.72499
G1 X16.992 Y120.386 E91.73839
G1 X16.667 Y119.786 E91.76109
G1 X16.608 Y119.475 E91.77162
G1 X16.608 Y25.091 E94.91084
G1 X16.659 Y24.824 E94.91988
G1 X16.866 Y24.38 E94.93618
G1 X17.184 Y24.024 E94.95205
M204 S2000
M205 X10 Y10
G0 F3000 X17.657 Y24.659
M204 S1000
M205 X8 Y8
G1 F2400 X18.016 Y24.483 E94.96535
G1 X93.349 Y24.483 E97.47094
G1 X93.71 Y24.659 E97.4843
G1 X93.785 Y24.735 E97.48785
G1 X93.957 Y25.092 E97.50103
G1 X93.958 Y119.475 E100.64022
G1 X93.781 Y119.836 E100.65359
G1 X93.706 Y119.91 E100.6571
G1 X93.348 Y120.083 E100.67032
G1 X18.017 Y120.083 E103.17584
G1 X17.66 Y119.911 E103.18902
G1 X17.584 Y119.836 E103.19257
G1 X17.408 Y119.475 E103.20593
G1 X17.408 Y25.091 E106.34515
G1 X17.584 Y24.732 E106.35845
G1 X17.657 Y24.659 E106.36188
M204 S2000
M205 X10 Y10
G0 F3000 X17.374 Y24.376
M204 S1000
M205 X8 Y8
G1 F2400 X17.84 Y24.124 E106.3795
G1 X18.016 Y24.083 E106.38552
G1 X93.349 Y24.083 E108.8911
G1 X93.524 Y24.123 E108.89707
G1 X93.995 Y24.378 E108.91489
G1 X94.145 Y24.561 E108.92276
G1 X94.317 Y24.918 E108.93594
G1 X94.357 Y25.092 E108.94187
G1 X94.358 Y119.475 E112.08107
G1 X94.317 Y119.651 E112.08708
G1 X94.062 Y120.121 E112.10486
G1 X93.88 Y120.27 E112.11268
G1 X93.522 Y120.443 E112.12591
G1 X93.348 Y120.483 E112.13185
G1 X18.017 Y120.483 E114.63737
G1 X17.843 Y120.443 E114.6433
G1 X17.486 Y120.271 E114.65648
G1 X17.303 Y120.121 E114.66435
G1 X17.048 Y119.65 E114.68217
G1 X17.008 Y119.475 E114.68814
G1 X17.008 Y25.091 E117.82736
G1 X17.049 Y24.915 E117.83337
G1 X17.225 Y24.556 E117.84667
G1 X17.374 Y24.376 E117.85444
M204 S2000
M205 X10 Y10
G1 F2400 E111.85444
;MESH:numpad_plate_Supported.stl
G0 F3000 X18.027 Y25.204
G0 X18.368 Y40.628
G0 X18.456 Y41.627
G0 X18.648 Y40.817
M204 S1000
M205 X8 Y8
;TYPE:WALL-OUTER
G1 F2400 E117.85444
G1 F1500 X18.606 Y40.619 E117.86118
G1 X18.607 Y27.74 E118.28953
G1 X18.671 Y27.491 E118.29808
G1 X18.835 Y27.266 E118.30735
G1 X19.052 Y27.128 E118.3159
G1 X19.427 Y27.093 E118.32843
G1 X19.471 Y26.891 E118.3353
G1 X19.607 Y26.689 E118.3434
G1 X19.799 Y26.554 E118.35121
G1 X20.069 Y26.482 E118.3605
G1 X34.148 Y26.483 E118.82877
G1 X34.393 Y26.547 E118.83719
G1 X34.618 Y26.711 E118.84645
G1 X34.737 Y26.887 E118.85352
G1 X34.781 Y27.092 E118.86049
G1 X35.159 Y27.128 E118.87312
G1 X35.417 Y27.304 E118.88351
G1 X35.553 Y27.51 E118.89172
G1 X35.605 Y27.744 E118.89969
G1 X35.608 Y40.602 E119.32735
G1 X35.568 Y40.804 E119.3342
G1 X35.429 Y41.043 E119.3434
G1 X35.2 Y41.214 E119.3529
G1 X34.784 Y41.267 E119.36685
G1 X34.741 Y41.469 E119.37372
G1 X34.606 Y41.67 E119.38177
G1 X34.378 Y41.825 E119.39094
G1 X34.144 Y41.877 E119.39891
G1 X20.086 Y41.88 E119.86649
G1 X19.819 Y41.817 E119.87561
G1 X19.594 Y41.653 E119.88487
G1 X19.474 Y41.475 E119.89201
G1 X19.431 Y41.27 E119.89898
G1 X19.063 Y41.239 E119.91126
G1 X18.79 Y41.053 E119.92225
G1 X18.648 Y40.817 E119.93141
M204 S2000
M205 X10 Y10
G0 F3000 X18.607 Y40.621
G0 X18.316 Y40.68
G0 X18.368 Y59.678
G0 X18.456 Y60.677
G0 X18.648 Y59.868
M204 S1000
M205 X8 Y8
G1 F1500 X18.606 Y59.667 E119.93824
G1 X18.611 Y46.792 E120.36646
G1 X18.671 Y46.543 E120.37498
G1 X18.835 Y46.318 E120.38424
G1 X19.052 Y46.18 E120.39279
G1 X19.427 Y46.145 E120.40532
G1 X19.471 Y45.943 E120.4122
G1 X19.635 Y45.718 E120.42146
G1 X19.871 Y45.576 E120.43062
G1 X20.086 Y45.532 E120.43792
G1 X34.144 Y45.535 E120.90549
G1 X34.393 Y45.595 E120.91401
G1 X34.595 Y45.731 E120.92211
G1 X34.738 Y45.936 E120.93042
G1 X34.781 Y46.142 E120.93742
G1 X35.18 Y46.185 E120.95077
G1 X35.394 Y46.326 E120.95929
G1 X35.553 Y46.558 E120.96865
G1 X35.605 Y46.792 E120.97662
G1 X35.608 Y59.65 E121.40428
G1 X35.568 Y59.855 E121.41122
G1 X35.429 Y60.095 E121.42045
G1 X35.201 Y60.266 E121.42993
G1 X34.784 Y60.319 E121.44391
G1 X34.741 Y60.521 E121.45078
G1 X34.593 Y60.734 E121.4594
G1 X34.378 Y60.877 E121.46799
G1 X34.129 Y60.931 E121.47647
G1 X20.086 Y60.932 E121.94354
G1 X19.819 Y60.869 E121.95266
G1 X19.594 Y60.705 E121.96192
G1 X19.474 Y60.527 E121.96906
G1 X19.431 Y60.322 E121.97603
G1 X19.063 Y60.291 E121.98831
G1 X18.79 Y60.105 E121.9993
G1 X18.648 Y59.868 E122.00849
M204 S2000
M205 X10 Y10
G0 F3000 X18.608 Y59.672
G0 X18.316 Y59.731
G0 X18.368 Y78.728
G0 X18.456 Y79.727
G0 X18.648 Y78.917
M204 S1000
M205 X8 Y8
G1 F1500 X18.606 Y78.719 E122.01522
G1 X18.61 Y65.844 E122.44345
G1 X18.671 Y65.591 E122.4521
G1 X18.835 Y65.366 E122.46136
G1 X19.052 Y65.228 E122.46992
G1 X19.427 Y65.193 E122.48244
G1 X19.471 Y64.991 E122.48932
G1 X19.635 Y64.766 E122.49858
G1 X19.871 Y64.624 E122.50774
G1 X20.086 Y64.58 E122.51504
G1 X34.129 Y64.581 E122.98211
G1 X34.393 Y64.647 E122.99116
G1 X34.595 Y64.783 E122.99926
G1 X34.737 Y64.987 E123.00753
G1 X34.781 Y65.192 E123.0145
G1 X35.18 Y65.237 E123.02786
G1 X35.394 Y65.378 E123.03638
G1 X35.553 Y65.61 E123.04574
G1 X35.605 Y65.844 E123.05371
G1 X35.608 Y78.702 E123.48137
G1 X35.568 Y78.904 E123.48822
G1 X35.429 Y79.143 E123.49741
G1 X35.2 Y79.314 E123.50692
G1 X34.784 Y79.367 E123.52087
G1 X34.741 Y79.569 E123.52774
G1 X34.606 Y79.77 E123.53579
G1 X34.378 Y79.925 E123.54496
G1 X34.144 Y79.977 E123.55293
G1 X20.086 Y79.98 E124.0205
G1 X19.819 Y79.917 E124.02963
G1 X19.594 Y79.753 E124.03889
G1 X19.474 Y79.575 E124.04603
G1 X19.431 Y79.37 E124.05299
G1 X19.063 Y79.339 E124.06528
G1 X18.79 Y79.153 E124.07626
G1 X18.648 Y78.917 E124.08542
M204 S2000
M205 X10 Y10
G0 F3000 X18.607 Y78.721
G0 X18.316 Y78.78
G0 X18.368 Y97.778
G0 X18.456 Y98.777
G0 X18.648 Y97.968
M204 S1000
M205 X8 Y8
G1 F1500 X18.606 Y97.767 E124.09225
G1 X18.611 Y84.892 E124.52048
G1 X18.671 Y84.643 E124.529
G1 X18.835 Y84.418 E124.53826
G1 X19.052 Y84.28 E124.54681
G1 X19.427 Y84.245 E124.55934
G1 X19.471 Y84.043 E124.56621
G1 X19.635 Y83.818 E124.57547
G1 X19.871 Y83.676 E124.58464
G1 X20.086 Y83.632 E124.59193
G1 X34.144 Y83.635 E125.05951
G1 X34.393 Y83.695 E125.06802
G1 X34.595 Y83.831 E125.07612
G1 X34.738 Y84.036 E125.08444
G1 X34.781 Y84.242 E125.09144
G1 X35.18 Y84.285 E125.10478
G1 X35.394 Y84.426 E125.11331
G1 X35.553 Y84.658 E125.12266
G1 X35.605 Y84.892 E125.13063
G1 X35.608 Y97.75 E125.55829
G1 X35.568 Y97.955 E125.56524
G1 X35.429 Y98.195 E125.57447
G1 X35.195 Y98.369 E125.58416
G1 X34.784 Y98.419 E125.59793
G1 X34.741 Y98.621 E125.6048
G1 X34.61 Y98.818 E125.61267
G1 X34.413 Y98.958 E125.62071
G1 X34.143 Y99.029 E125.63
G1 X20.104 Y99.032 E126.09694
G1 X19.819 Y98.969 E126.10664
G1 X19.594 Y98.805 E126.1159
G1 X19.474 Y98.627 E126.12304
G1 X19.431 Y98.422 E126.13001
G1 X19.063 Y98.391 E126.14229
G1 X18.79 Y98.205 E126.15328
G1 X18.648 Y97.968 E126.16247
M204 S2000
M205 X10 Y10
G0 F3000 X18.608 Y97.772
G0 X18.316 Y97.831
G0 X19.764 Y99.215
G0 X34.152 Y99.272
G0 X37.024 Y98.146
G0 X37.711 Y98.005
M204 S1000
M205 X8 Y8
G1 F1500 X37.656 Y97.75 E126.17115
G1 X37.659 Y84.892 E126.5988
G1 X37.692 Y84.708 E126.60502
G1 X37.831 Y84.469 E126.61422
G1 X38.06 Y84.298 E126.62372
G1 X38.475 Y84.245 E126.63764
G1 X38.519 Y84.043 E126.64452
G1 X38.654 Y83.842 E126.65257
G1 X38.882 Y83.687 E126.66174
G1 X39.138 Y83.632 E126.67045
G1 X53.192 Y83.635 E127.13788
G1 F1395.3 X53.461 Y83.67 E127.14758
G1 F1217 X53.647 Y83.75 E127.15588
G1 F1102.9 X53.872 Y84.016 E127.17164
G1 F1063.8 X53.905 Y84.165 E127.1788
G1 F1077.2 X54.155 Y84.189 E127.19043
G1 F1111.1 X54.452 Y84.35 E127.2056
G1 F1290.3 X54.612 Y84.695 E127.22031
G1 F1500 X54.656 Y84.928 E127.22819
G1 X54.656 Y97.75 E127.65465
G1 X54.62 Y97.955 E127.66158
G1 X54.481 Y98.195 E127.6708
G1 X54.252 Y98.366 E127.68031
G1 X53.836 Y98.419 E127.69425
G1 X53.793 Y98.621 E127.70112
G1 X53.629 Y98.846 E127.71038
G1 X53.409 Y98.985 E127.71904
G1 X53.176 Y99.032 E127.72695
G1 X39.12 Y99.029 E128.19445
G1 X38.867 Y98.969 E128.2031
G1 X38.661 Y98.829 E128.21138
G1 X38.521 Y98.626 E128.21958
G1 X38.479 Y98.422 E128.22651
G1 X38.145 Y98.398 E128.23765
G1 X37.87 Y98.238 E128.24823
G1 X37.711 Y98.005 E128.25761
M204 S2000
M205 X10 Y10
G0 F3000 X37.669 Y97.81
G0 X36.984 Y97.951
G0 X37.012 Y87.344
G0 X37.148 Y79.376
G0 X37.726 Y78.983
M204 S1000
M205 X8 Y8
G1 F1500 X37.656 Y78.702 E128.26724
G1 X37.659 Y65.844 E128.6949
G1 X37.719 Y65.591 E128.70355
G1 X37.859 Y65.385 E128.71184
G1 X38.059 Y65.246 E128.71994
G1 X38.475 Y65.193 E128.73388
G1 X38.519 Y64.991 E128.74076
G1 X38.654 Y64.79 E128.74881
G1 X38.853 Y64.65 E128.75691
G1 X39.138 Y64.58 E128.76667
G1 X53.176 Y64.58 E129.23357
G1 X53.415 Y64.631 E129.2417
G1 X53.618 Y64.759 E129.24968
G1 X53.79 Y64.988 E129.25921
G1 X53.833 Y65.192 E129.26614
G1 X54.167 Y65.218 E129.27729
G1 X54.442 Y65.378 E129.28787
G1 X54.601 Y65.61 E129.29722
G1 X54.653 Y65.84 E129.30507
G1 X54.656 Y78.69 E129.73246
G1 X54.621 Y78.896 E129.73941
G1 F1282.1 X54.467 Y79.25 E129.75443
G1 F1105 X54.174 Y79.414 E129.76959
G1 F1071.4 X53.912 Y79.446 E129.78188
G1 F1052.6 X53.88 Y79.587 E129.78873
G1 F1105 X53.666 Y79.839 E129.80366
G1 F1237.1 X53.481 Y79.928 E129.81194
G1 F1405.2 X53.156 Y79.981 E129.82363
G1 F1500 X39.138 Y79.98 E130.28987
G1 X38.867 Y79.917 E130.29913
G1 X38.665 Y79.781 E130.30723
G1 X38.521 Y79.574 E130.31561
G1 X38.479 Y79.37 E130.32254
G1 X38.145 Y79.346 E130.33368
G1 X37.87 Y79.186 E130.34426
G1 X37.726 Y78.983 E130.35254
M204 S2000
M205 X10 Y10
